X:1
T: A Legal Formality
N:
C:
S:aka "Trip to Ridgewood"
A:
O:
R:
M:6/8
K:Am
I:speed 150
%W:         A1
% voice 1 (1 lines, 34 notes)
K:Am
M:6/8
L:1/16
A2 c2 A2 e6 A2 c2 A2 e6 f4 e2 d2 d2 c2 B4 A2 ^G4 E2 |A2 c2 A2 e6 A2 c2 A2 e6 f4 e2 d2 d2 e2 d2 d2 ^g2 a6 |
%W:         A2
% voice 1 (1 lines, 34 notes)
A2 c2 A2 e6 A2 c2 A2 e6 f4 e2 d2 d2 c2 B4 A2 ^G4 E2 |A2 c2 A2 e6 A2 c2 A2 e6 f4 e2 d2 d2 e2 d2 d2 ^g2 a6 |
%W:         B1
% voice 1 (1 lines, 34 notes)
c'4 b2 a4 b2 a4 b2 ^g4 e2 c'4 b2 a4 b2 a4 b2 e6 |c4 B2 A2 E2 A2 A2 E2 B2 ^G4 E2 c4 B2 A2 E2 A2 A2 E2 B2 ^G6 |
%W:         B2
% voice 1 (1 lines, 40 notes)
e2 f2 e2 a2 e2 f2 e2 f2 e2 a6 e2 f2 e2 a2 g2 f2 e2 d2 c2 B6 |e2 f2 e2 a2 e2 f2 e2 f2 e2 a6 e2 f2 e2 a2 e2 d2 c2 e2 B2 A6 ||
